icons/op-custom-development-24.svg

<svg width="24" height="24" viewBox="0 0 24 24" fill="none" xmlns="http://www.w3.org/2000/svg">
<path d="M20 6.84238L19.9065 6H5.63244V12.9658L6.62975 11.9291V7.87916H19.0027V15.655H9.5282L8.53088 16.6918H20V6.84238ZM8.62438 6.64799C8.74905 6.64799 8.93604 6.74518 8.93604 6.93958C8.93604 7.16637 8.74905 7.26357 8.62438 7.26357C8.53088 7.26357 8.34389 7.16637 8.34389 6.93958C8.34389 6.74518 8.43739 6.64799 8.62438 6.64799ZM7.75173 6.64799C7.93873 6.64799 8.03223 6.74518 8.03223 6.93958C8.03223 7.16637 7.93873 7.26357 7.75173 7.26357C7.53357 7.26357 7.44007 7.16637 7.44007 6.93958C7.44007 6.74518 7.53357 6.64799 7.75173 6.64799ZM6.84791 6.64799C7.03491 6.64799 7.12841 6.74518 7.12841 6.93958C7.12841 7.16637 7.03491 7.26357 6.84791 7.26357C6.62975 7.26357 6.53625 7.16637 6.53625 6.93958C6.53625 6.74518 6.75442 6.64799 6.84791 6.64799ZM13.3305 9.43432H16.8211V10.1471H13.3305V9.43432ZM13.3305 10.5683H18.0054V11.3135H13.3305V10.5683ZM13.3305 11.8319H17.4132V12.5447H13.3305V11.8319ZM13.3305 12.8686H16.8211V13.5814H13.3305V12.8686ZM9.4347 13.6786C9.5282 13.6786 9.5282 13.6786 9.4347 13.6786H9.93336C11.0242 13.6786 12.0215 12.739 12.0215 11.5079C12.0215 11.3135 12.0215 11.0867 11.928 10.9895L10.9307 12.2207L9.74636 11.9291L9.4347 10.6655L10.5255 9.53152C10.3385 9.53152 10.245 9.43432 10.0269 9.43432C8.84254 9.43432 7.93873 10.3739 7.93873 11.6051C7.93873 11.8319 7.93873 12.1235 8.03223 12.3503L4.35463 16.1734C3.94947 16.5946 3.85597 17.3073 4.26113 17.7285C4.63512 18.1497 5.35194 18.0525 5.7571 17.6313L6.44276 16.8862L9.4347 13.6786Z" fill="black"/>
</svg>

<svg xmlns="http://www.w3.org/2000/svg" width="24" height="24" viewBox="0 0 24 24"><path d="M20 6.842 19.907 6H5.632v6.966l.998-1.037v-4.05h12.373v7.776H9.528l-.997 1.037H20v-9.85ZM8.624 6.648c.125 0 .312.097.312.292a.316.316 0 0 1-.312.324c-.093 0-.28-.098-.28-.324 0-.195.093-.292.28-.292Zm-.872 0c.187 0 .28.097.28.292 0 .226-.093.324-.28.324-.218 0-.312-.098-.312-.324 0-.195.094-.292.312-.292Zm-.904 0c.187 0 .28.097.28.292 0 .226-.093.324-.28.324-.218 0-.312-.098-.312-.324 0-.195.218-.292.312-.292Zm6.483 2.786h3.49v.713h-3.49v-.713Zm0 1.134h4.674v.745h-4.674v-.745Zm0 1.264h4.082v.713h-4.082v-.713Zm0 1.037h3.49v.712h-3.49v-.712Zm-3.896.81c.093 0 .093 0 0 0h.498c1.091 0 2.088-.94 2.088-2.171 0-.195 0-.421-.093-.519l-.997 1.232-1.185-.292-.311-1.264 1.09-1.133c-.187 0-.28-.098-.498-.098-1.184 0-2.088.94-2.088 2.171 0 .227 0 .518.093.745l-3.677 3.823c-.406.422-.499 1.134-.094 1.556.374.421 1.091.323 1.496-.098l.686-.745 2.992-3.207Z"/></svg>
